src/icons/hds/ui/home-smoke.svg

<svg xmlns="http://www.w3.org/2000/svg" width="24" height="24" viewBox="0 0 24 24">
  <g fill="none" fill-rule="evenodd">
    <rect width="24" height="24"/>
    <path fill="currentColor" d="M12,4 L23,15 L21.5,16.5 L20,15 L20,23 L4,23 L4,15 L2.5,16.5 L1,15 L12,4 Z M12,7 L6,13 L6,21 L8.999,20.999 L9,14 L15,14 L14.999,20.999 L18,21 L18,13 L12,7 Z M13,16 L11,16 L10.999,20.999 L12.999,20.999 L13,16 Z M20,1 C20,1.90098576 19.7632442,2.40639352 19.1666499,3.12308708 L19.0694425,3.23809353 C18.6126667,3.77099855 18.5,3.99007273 18.5,4.5 C18.5,4.97805682 18.5990235,5.20048103 18.987773,5.66551686 L19.0694425,5.76190647 C19.7042555,6.5025217 19.9727519,6.99991093 19.9980146,7.86093797 L20,8 L18.5,8 C18.5,7.52194318 18.4009765,7.29951897 18.012227,6.83448314 L17.9305575,6.73809353 C17.2623333,5.95849855 17,5.44840606 17,4.5 C17,3.59901424 17.2367558,3.09360648 17.8333501,2.37691292 L17.9305575,2.26190647 C18.3587848,1.76230801 18.4845725,1.53853745 18.4986232,1.09235056 L18.5,1 L20,1 Z"/>
  </g>
</svg>

<svg viewBox="0 0 24 24" role="img" xmlns="http://www.w3.org/2000/svg"><g fill="none" fill-rule="evenodd"><path d="M0 0h24v24H0z"/><path d="M12 4l11 11-1.5 1.5L20 15v8H4v-8l-1.5 1.5L1 15 12 4zm0 3l-6 6v8l2.999-.001L9 14h6l-.001 6.999L18 21v-8l-6-6zm1 9h-2l-.001 4.999h2L13 16zm7-15c0 .901-.237 1.406-.833 2.123l-.098.115c-.456.533-.569.752-.569 1.262 0 .478.099.7.488 1.166l.081.096c.635.74.904 1.238.929 2.099L20 8h-1.5c0-.478-.099-.7-.488-1.166l-.081-.096C17.262 5.958 17 5.448 17 4.5c0-.901.237-1.406.833-2.123l.098-.115c.428-.5.554-.723.568-1.17L18.5 1H20z" fill="currentColor"/></g></svg>
